build/assets/fonts/e1d3686c3d84d0a4de49cbfbcd51f5df.svg

<svg viewBox="0 0 462 461" xmlns="http://www.w3.org/2000/svg" preserveAspectRatio="xMinYMin"><g transform="translate(0 -1)" fill="none" fill-rule="evenodd"><circle fill="#377EF0" cx="230.5" cy="231.5" r="230.5"/><path d="M127.115 95.221l-6.066-4.291c-.77-.587-1.705-1.812-2.285-1.662-4.863 1.261-10.036 2.11-14.303 4.523-1.806 1.021-1.604 5.503-2.427 8.38-.712 2.487-.872 6.15-2.54 7.12-2.866 1.666-3.337 3.467-3.558 6.317-.258 3.318-.297 7.289-2.112 9.723-4.146 5.561-9.531 10.181-13.956 15.559-1.591 1.934-2.729 4.997-2.575 7.451.309 4.909 1.925 9.724 2.434 14.636.206 1.981-1.076 4.117-1.68 6.182-1.784-.567-4.294-.585-5.214-1.804-2.675-3.545-4.712-7.571-7-11.408-2.467-2.806-17.71-4.826-20.851-1.995-4.706 4.241-9.583 3.266-14.821 2.232-6.632-1.308-12.219 3.209-12.095 9.863.107 5.764 1.291 11.606.63 17.253-.447 3.818.431 5.921 3.269 7.8 2.377 1.797 4.712 3.653 7.14 5.378 3.269 2.323 7.532 2.676 9.335-.592 4.241-7.691 10.227-4.492 16.913-4.258-1.41 3.545-2.566 6.381-3.669 9.237-1.868 4.835-1.03 6.339 3.961 7.142 3.615.582 7.346.784 10.801 1.867 1.49.467 3.23 2.631 3.424 4.202.382 3.085-.127 6.306-.472 9.449-.476 4.348 1.344 6.217 5.521 7.924 10.073 4.117 19.173 3.178 28.433-2.206 7.876-4.579 16.642-1.592 25.023-1.921 5.61-.219 10.055 1.599 13.211 6.343.454.684 1.194 1.173 1.687 1.838 6.647 8.97 15.311 14.511 26.547 15.759 3.833.426 6.471 2.513 7.749 6.139 5.469 15.516 16.283 24.093 32.622 26.605 7.172 1.102 14.107 3.922 21.039 6.286 1.813.618 3.212 2.447 4.801 3.719 1.582 13.584-1.956 25.463-11.165 35.787-1.925 2.157-2.559 5.616-3.355 8.592-1.074 4.014-1.325 8.284-2.702 12.171-.98 2.769-2.745 5.713-5.015 7.484-5.501 4.293-11.371 8.163-17.347 11.783-4.006 2.427-5.668 5.334-5.583 10.121.053 2.99-1.027 6.736-2.974 8.909-15.238 16.994-30.793 33.704-46.306 50.45-1.322 1.427-3.051 2.475-4.591 3.7l-31.102-16.883c1.066-12.277 2.112-24.555 3.205-36.828.96-10.778 2.164-21.539 2.822-32.334.16-2.62-.594-6.207-2.339-7.852-4.325-4.076-9.723-6.995-14.18-10.954-2.591-2.302-4.716-5.482-6.138-8.673-3.038-6.819-4.784-14.286-8.346-20.782-4.495-8.196-6.337-16.484-5.983-25.751.197-5.163.98-9.633 5.025-12.886 5.92-4.759 7.711-10.852 6.734-18.1-.154-1.141-.028-2.332.068-3.492.332-4.021-2.18-6.501-5.498-6.286-9.468.611-16.194-5.45-23.924-8.998-1.429-.656-3.125-3.159-2.917-4.54 1.014-6.707-2.832-10.083-7.775-13.082-2.269-1.377-4.186-3.393-6.542-4.551-2.849-1.4-5.976-3.02-9.015-3.087-6.792-.15-13.611.966-20.406.839-3.458-.065-7.906.768-9.808-3.893 1.241-19.867 6.876-38.698 13.814-57.164 8.092-21.538 19.396-41.389 33.667-59.377 18.875-23.79 41.388-43.537 68.13-58.193 6.019-3.298 12.276-6.16 18.424-9.223 1.972 4.032 4.244 7.95 5.824 12.13 1.325 3.505 2.667 6.218 6.501 7.959 5.182 2.353 10.426 5.204 12.651 11.164l2.778 8.088c-1.041.491-2.008 1.146-3.072 1.414-7.248 1.826-14.182 3.961-19.264 10.181-1.263 1.548-4.433 1.867-6.793 2.11-3.319.342-6.701.087-10.055.087l-.169 2.032c3.92 3.47 9.274 1.304 13.748 2.597l9.783 8.228c-5.033 6.43-11.415 9.661-19.726 8.313zm287.89 274.868c-4.891-9.231-9.86-18.421-14.606-27.726-.912-1.79-1.876-4.401-1.235-6 4.057-10.124 2.576-20.65 2.828-31.049.072-2.992-.162-5.998.048-8.976.341-4.822-.39-9.267-3.646-13.034-4.295-4.967-2.986-10.981-3.103-16.706-.148-7.231-.507-7.927-7.646-7.593-4.552.214-7.621-1.088-9.633-5.231-1.006-2.07-2.532-3.888-3.823-5.821-3.721-3.007-11.684-3.525-15.619-.135-7.764 6.688-16.421 9.643-26.572 8.239-.647-.09-1.327.06-1.992.098-3.527.295-5.339-1.63-6.768-4.65-5.542-11.717-10.879-23.561-20.994-32.391-1.347-1.177-1.879-3.864-1.916-5.868a762.627 762.627 0 0 1-.001-29.946c.048-2.384.649-5.064 1.881-7.062 4.825-7.817 8.423-16.666 17.896-20.716 1.656-.708 2.727-4.312 2.903-6.665.538-7.202 4.384-11.954 11.495-13.228.163-.029.329-.066.494-.065 10.942.086 19.588-4.851 27.564-11.887 2.236-1.972 5.878-3.013 8.961-3.227 6.789-.47 13.635-.09 20.456-.158 3.325-.032 5.177.883 3.964 4.676-3.555 11.116-.896 9.863 7.783 12.708 6.48 2.125 13.029 4.047 19.456 6.319 4.52 1.597 6.937.184 8.055-4.352.675-2.737 1.437-5.535 2.75-7.991.528-.987 2.636-1.13 4.025-1.658 9.825 18.518 16.145 38.296 19.803 58.813 11.42 64.061-1.742 122.883-38.65 176.419-1.204 1.747-2.764 3.248-4.158 4.863zm16.23-253.278c-2.03-.943-4.127-1.765-6.078-2.85-9.429-5.247-18.819-10.564-28.223-15.857-6.036-4.439-13.209-2.145-19.802-3.293-4.251-.741-6.502 1.023-6.595 5.727-.03 1.54-2.168 4.464-2.966 4.339-6.611-1.033-9.113 3.381-11.75 7.947-1.578 2.733-3.651 5.199-5.052 8.009-2.052 4.116-5.03 5.941-9.584 5.048-6.922-.834-10.763-6.255-15.01-10.708-1.41-1.48-1.339-4.945-1.037-7.39 1.74-14.093-.355-11.892 13.253-12.635 2.991-.163 6.053.111 8.961-.446 2.682-.513 6.922-1.318 7.453-2.968 1.301-4.038 2.309-8.899-1.742-12.536-2.825-2.537-5.729-4.988-9.297-8.083l4.254-1.013c1.982.2 3.986.277 5.943.623 6.958 1.231 12.569-.67 17.286-6.17 2.774-3.234 6.446-5.696 9.714-8.506 20.391 17.248 37.093 37.547 50.272 60.762zm-84.944-51.984l-7.727-1.181c.829-3.542 1.914-6.789 2.274-10.115.342-3.171.562-6.602-.285-9.604-1.799-6.379-4.325-12.554-6.553-18.812l31.93 18.957c-.671 5.563-1.479 11.114-1.963 16.694-.303 3.498-2.196 4.429-5.291 4.315-4.126-.152-8.257-.176-12.385-.254zM193.993 26.05c-6.241 1.029-10.575-1.708-14.188-6.617-2.911-3.955-6.386-7.495-9.61-11.219l43.812-7.22c-1.797 2.135-3.569 4.292-5.396 6.402-4.371 5.048-11.57 8.733-7.514 17.597l-7.104 1.057z" fill="#C3D8FA"/></g></svg>

<svg viewBox="0 0 462 461" version="1.1" xmlns="http://www.w3.org/2000/svg" xmlns:xlink="http://www.w3.org/1999/xlink" preserveAspectRatio="xMinYMin"><title>android-browser</title><desc>Created with Sketch.</desc><g id="Page-1" stroke="none" stroke-width="1" fill="none" fill-rule="evenodd"><g id="android-browser" transform="translate(0.000000, -1.000000)"><circle id="ocean" fill="#377EF0" cx="230.5" cy="231.5" r="230.5"/><path d="M127.115,95.221 C125.093,93.791 123.071,92.36 121.049,90.93 C120.279,90.343 119.344,89.118 118.764,89.268 C113.901,90.529 108.728,91.378 104.461,93.791 C102.655,94.812 102.857,99.294 102.034,102.171 C101.322,104.658 101.162,108.321 99.494,109.291 C96.628,110.957 96.157,112.758 95.936,115.608 C95.678,118.926 95.639,122.897 93.824,125.331 C89.678,130.892 84.293,135.512 79.868,140.89 C78.277,142.824 77.139,145.887 77.293,148.341 C77.602,153.25 79.218,158.065 79.727,162.977 C79.933,164.958 78.651,167.094 78.047,169.159 C76.263,168.592 73.753,168.574 72.833,167.355 C70.158,163.81 68.121,159.784 65.833,155.947 C63.366,153.141 48.123,151.121 44.982,153.952 C40.276,158.193 35.399,157.218 30.161,156.184 C23.529,154.876 17.942,159.393 18.066,166.047 C18.173,171.811 19.357,177.653 18.696,183.3 C18.249,187.118 19.127,189.221 21.965,191.1 C24.342,192.897 26.677,194.753 29.105,196.478 C32.374,198.801 36.637,199.154 38.44,195.886 C42.681,188.195 48.667,191.394 55.353,191.628 C53.943,195.173 52.787,198.009 51.684,200.865 C49.816,205.7 50.654,207.204 55.645,208.007 C59.26,208.589 62.991,208.791 66.446,209.874 C67.936,210.341 69.676,212.505 69.87,214.076 C70.252,217.161 69.743,220.382 69.398,223.525 C68.922,227.873 70.742,229.742 74.919,231.449 C84.992,235.566 94.092,234.627 103.352,229.243 C111.228,224.664 119.994,227.651 128.375,227.322 C133.985,227.103 138.43,228.921 141.586,233.665 C142.04,234.349 142.78,234.838 143.273,235.503 C149.92,244.473 158.584,250.014 169.82,251.262 C173.653,251.688 176.291,253.775 177.569,257.401 C183.038,272.917 193.852,281.494 210.191,284.006 C217.363,285.108 224.298,287.928 231.23,290.292 C233.043,290.91 234.442,292.739 236.031,294.011 C237.613,307.595 234.075,319.474 224.866,329.798 C222.941,331.955 222.307,335.414 221.511,338.39 C220.437,342.404 220.186,346.674 218.809,350.561 C217.829,353.33 216.064,356.274 213.794,358.045 C208.293,362.338 202.423,366.208 196.447,369.828 C192.441,372.255 190.779,375.162 190.864,379.949 C190.917,382.939 189.837,386.685 187.89,388.858 C172.652,405.852 157.097,422.562 141.584,439.308 C140.262,440.735 138.533,441.783 136.993,443.008 C126.626,437.38 116.259,431.752 105.891,426.125 C106.957,413.848 108.003,401.57 109.096,389.297 C110.056,378.519 111.26,367.758 111.918,356.963 C112.078,354.343 111.324,350.756 109.579,349.111 C105.254,345.035 99.856,342.116 95.399,338.157 C92.808,335.855 90.683,332.675 89.261,329.484 C86.223,322.665 84.477,315.198 80.915,308.702 C76.42,300.506 74.578,292.218 74.932,282.951 C75.129,277.788 75.912,273.318 79.957,270.065 C85.877,265.306 87.668,259.213 86.691,251.965 C86.537,250.824 86.663,249.633 86.759,248.473 C87.091,244.452 84.579,241.972 81.261,242.187 C71.793,242.798 65.067,236.737 57.337,233.189 C55.908,232.533 54.212,230.03 54.42,228.649 C55.434,221.942 51.588,218.566 46.645,215.567 C44.376,214.19 42.459,212.174 40.103,211.016 C37.254,209.616 34.127,207.996 31.088,207.929 C24.296,207.779 17.477,208.895 10.682,208.768 C7.224,208.703 2.776,209.536 0.874,204.875 C2.115,185.008 7.75,166.177 14.688,147.711 C22.78,126.173 34.084,106.322 48.355,88.334 C67.23,64.544 89.743,44.797 116.485,30.141 C122.504,26.843 128.761,23.981 134.909,20.918 C136.881,24.95 139.153,28.868 140.733,33.048 C142.058,36.553 143.4,39.266 147.234,41.007 C152.416,43.36 157.66,46.211 159.885,52.171 C160.787,54.799 161.689,57.426 162.663,60.259 C161.622,60.75 160.655,61.405 159.591,61.673 C152.343,63.499 145.409,65.634 140.327,71.854 C139.064,73.402 135.894,73.721 133.534,73.964 C130.215,74.306 126.833,74.051 123.479,74.051 C123.422,74.728 123.366,75.405 123.31,76.083 C127.23,79.553 132.584,77.387 137.058,78.68 C140.319,81.423 143.58,84.165 146.841,86.908 C141.808,93.338 135.426,96.569 127.115,95.221 Z M415.005,370.089 C410.114,360.858 405.145,351.668 400.399,342.363 C399.487,340.573 398.523,337.962 399.164,336.363 C403.221,326.239 401.74,315.713 401.992,305.314 C402.064,302.322 401.83,299.316 402.04,296.338 C402.381,291.516 401.65,287.071 398.394,283.304 C394.099,278.337 395.408,272.323 395.291,266.598 C395.143,259.367 394.784,258.671 387.645,259.005 C383.093,259.219 380.024,257.917 378.012,253.774 C377.006,251.704 375.48,249.886 374.189,247.953 C370.468,244.946 362.505,244.428 358.57,247.818 C350.806,254.506 342.149,257.461 331.998,256.057 C331.351,255.967 330.671,256.117 330.006,256.155 C326.479,256.45 324.667,254.525 323.238,251.505 C317.696,239.788 312.359,227.944 302.244,219.114 C300.897,217.937 300.365,215.25 300.328,213.246 C300.139,203.267 300.124,193.279 300.327,183.3 C300.375,180.916 300.976,178.236 302.208,176.238 C307.033,168.421 310.631,159.572 320.104,155.522 C321.76,154.814 322.831,151.21 323.007,148.857 C323.545,141.655 327.391,136.903 334.502,135.629 C334.665,135.6 334.831,135.563 334.996,135.564 C345.938,135.65 354.584,130.713 362.56,123.677 C364.796,121.705 368.438,120.664 371.521,120.45 C378.31,119.98 385.156,120.36 391.977,120.292 C395.302,120.26 397.154,121.175 395.941,124.968 C392.386,136.084 395.045,134.831 403.724,137.676 C410.204,139.801 416.753,141.723 423.18,143.995 C427.7,145.592 430.117,144.179 431.235,139.643 C431.91,136.906 432.672,134.108 433.985,131.652 C434.513,130.665 436.621,130.522 438.01,129.994 C447.835,148.512 454.155,168.29 457.813,188.807 C469.233,252.868 456.071,311.69 419.163,365.226 C417.959,366.973 416.399,368.474 415.005,370.089 Z M431.235,116.811 C429.205,115.868 427.108,115.046 425.157,113.961 C415.728,108.714 406.338,103.397 396.934,98.104 C390.898,93.665 383.725,95.959 377.132,94.811 C372.881,94.07 370.63,95.834 370.537,100.538 C370.507,102.078 368.369,105.002 367.571,104.877 C360.96,103.844 358.458,108.258 355.821,112.824 C354.243,115.557 352.17,118.023 350.769,120.833 C348.717,124.949 345.739,126.774 341.185,125.881 C334.263,125.047 330.422,119.626 326.175,115.173 C324.765,113.693 324.836,110.228 325.138,107.783 C326.878,93.69 324.783,95.891 338.391,95.148 C341.382,94.985 344.444,95.259 347.352,94.702 C350.034,94.189 354.274,93.384 354.805,91.734 C356.106,87.696 357.114,82.835 353.063,79.198 C350.238,76.661 347.334,74.21 343.766,71.115 C345.718,70.65 346.869,70.376 348.02,70.102 C350.002,70.302 352.006,70.379 353.963,70.725 C360.921,71.956 366.532,70.055 371.249,64.555 C374.023,61.321 377.695,58.859 380.963,56.049 C401.354,73.297 418.056,93.596 431.235,116.811 Z M346.291,64.827 C344.016,64.479 341.741,64.131 338.564,63.646 C339.393,60.104 340.478,56.857 340.838,53.531 C341.18,50.36 341.4,46.929 340.553,43.927 C338.754,37.548 336.228,31.373 334,25.115 C344.643,31.434 355.287,37.753 365.93,44.072 C365.259,49.635 364.451,55.186 363.967,60.766 C363.664,64.264 361.771,65.195 358.676,65.081 C354.55,64.929 350.419,64.905 346.291,64.827 Z M193.993,26.05 C187.752,27.079 183.418,24.342 179.805,19.433 C176.894,15.478 173.419,11.938 170.195,8.214 C184.799,5.807 199.403,3.4 214.007,0.994 C212.21,3.129 210.438,5.286 208.611,7.396 C204.24,12.444 197.041,16.129 201.097,24.993 C198.216,25.422 196.105,25.736 193.993,26.05 Z" id="land" fill="#C3D8FA"/></g></g></svg>
